X: 30944
T: Over Yonder
R: waltz
M: 3/4
K: Dmajor
DE|:"D"F2 F2 G2|"A/D"A4 A2|"G/D"A2 D2 G2|"A/D"E2"D" F2 "F#m/C#"FA|
"Bm"B4 d2|"A6"c2 F2 A2|"Gmaj7"B2 D2 E2|"F#m"F4 FE|
"Bm"D2 D2 B2|"D/A"A2 F2 FE|"G"D2 D2 A2|"F#m"F4 FA|
"Em"B3 c B2|1 "D/F#" A2 F2 FA|"G"GF E2 "Bm"D2|"A7"E4 DE:|
[2 "D/F#"A2 F2 DE|"Gmaj7"F3 A F2|"A6"F2 F2 "A7"E2|"D"D6|D6||

